icon-themes/breeze_svg/cmd/lc_bezier_unfilled.svg

<svg viewBox="0 0 24 24" xmlns="http://www.w3.org/2000/svg"><path d="m7 4c-1.6568542 0-3 1.3431-3 3s1.3431458 3 3 3c1.3013207 0 2.3969895-.8416 2.8125-2h2.40625c-4.3329447 2.4608-7.21875 6.9142-7.21875 12h2c0-6.3703 5.301188-11.5852 12-12h1v-2h-1-9.1875c-.4155105-1.1584-1.5111793-2-2.8125-2zm0 2c.552285 0 1 .4477 1 1s-.447715 1-1 1c-.5522847 0-1-.4477-1-1s.4477153-1 1-1z" fill="#4d4d4d"/></svg>

<svg xmlns="http://www.w3.org/2000/svg" viewBox="0 0 24 24">
 <path 
     style="fill:#4d4d4d" 
     d="M 7 4 C 5.3431458 4 4 5.3431 4 7 C 4 8.6569 5.3431458 10 7 10 C 8.3013207 10 9.3969895 9.1584 9.8125 8 L 12.21875 8 C 7.8858053 10.4608 5 14.9142 5 20 L 7 20 C 7 13.6297 12.301188 8.4148 19 8 L 20 8 L 20 6 L 19 6 L 9.8125 6 C 9.3969895 4.8416 8.3013207 4 7 4 z M 7 6 C 7.552285 6 8 6.4477 8 7 C 8 7.5523 7.552285 8 7 8 C 6.4477153 8 6 7.5523 6 7 C 6 6.4477 6.4477153 6 7 6 z "
     />
 </svg>
